exports/number-with-without-access-sanitation_v1_850x600.svg

<svg xmlns="http://www.w3.org/2000/svg" version="1.1" style="background-color:#fff;-webkit-font-smoothing:antialiased" width="850" height="600" font-family="'Helvetica Neue',Helvetica,Arial,sans-serif" font-size="18" text-rendering="optimizeLegibility"><g class="ChartTab"><g class="HeaderView"><g opacity=".8" transform="matrix(.31 0 0 .31 770 15)"><a xmlns:xlink="http://www.w3.org/1999/xlink" xlink:href="https://ourworldindata.org" target="_blank"><g><path fill="#1B2543" d="M0 0h211.2v130.1H0z"/><path fill="#E63912" d="M0 112.2h211.2v17.9H0z"/><g><path fill="none" d="M1.2 12.3h210.2v99.2H1.2z"/><path fill="#FFF" d="M37.8 32.2c0 12.7-7.7 19.4-17.1 19.4-9.7 0-16.6-7.5-16.6-18.7 0-11.7 7.3-19.3 17.1-19.3 10.1.1 16.6 7.7 16.6 18.6zm-28.6.6c0 7.9 4.3 14.9 11.8 14.9 7.5 0 11.8-6.9 11.8-15.3 0-7.3-3.8-14.9-11.8-14.9-7.9 0-11.8 7.3-11.8 15.3zM62.7 43.8c0 2.7.1 5.1.2 7.2h-4.3l-.3-4.3h-.1c-1.3 2.1-4 4.9-8.8 4.9-4.2 0-9.1-2.3-9.1-11.6V24.6h4.8v14.6c0 5 1.5 8.4 5.9 8.4 3.2 0 5.5-2.2 6.3-4.4.3-.7.4-1.6.4-2.5V24.6h4.8v19.2zM67.3 32.8c0-3.1-.1-5.8-.2-8.2h4.2l.2 5.2h.2c1.2-3.5 4.1-5.8 7.3-5.8.5 0 .9.1 1.4.2v4.5c-.5-.1-1-.2-1.6-.2-3.4 0-5.8 2.6-6.5 6.2-.1.7-.2 1.4-.2 2.2V51h-4.8V32.8zM95.4 51L86 14.2h5l4.4 18.6c1.1 4.6 2.1 9.2 2.7 12.7h.1c.6-3.7 1.8-8 3-12.8l4.9-18.5h5l4.5 18.7c1 4.4 2 8.7 2.6 12.6h.1c.8-4 1.8-8.1 3-12.7l4.9-18.5h4.9L120.6 51h-5L111 31.9c-1.1-4.7-1.9-8.3-2.4-12h-.1c-.7 3.7-1.5 7.3-2.8 12L100.4 51h-5zM154.9 37.6c0 9.8-6.8 14-13.2 14-7.2 0-12.7-5.2-12.7-13.6 0-8.8 5.8-14 13.1-14 7.7 0 12.8 5.5 12.8 13.6zm-21 .3c0 5.8 3.3 10.1 8 10.1 4.6 0 8-4.3 8-10.3 0-4.5-2.2-10.1-7.9-10.1s-8.1 5.2-8.1 10.3zM158.2 32.8c0-3.1-.1-5.8-.2-8.2h4.2l.2 5.2h.2c1.2-3.5 4.1-5.8 7.3-5.8.5 0 .9.1 1.4.2v4.5c-.5-.1-1-.2-1.6-.2-3.4 0-5.8 2.6-6.5 6.2-.1.7-.2 1.4-.2 2.2V51h-4.8V32.8zM173.5 12.3h4.8V51h-4.8V12.3zM206.5 12.3v31.9c0 2.3.1 5 .2 6.8h-4.3l-.2-4.6h-.2c-1.5 2.9-4.7 5.2-9 5.2-6.4 0-11.3-5.4-11.3-13.4-.1-8.8 5.4-14.2 11.9-14.2 4 0 6.8 1.9 8 4h.1V12.3h4.8zm-4.8 23.1c0-.6-.1-1.4-.2-2a7 7 0 00-6.9-5.6c-5 0-7.9 4.4-7.9 10.2 0 5.3 2.6 9.8 7.8 9.8 3.2 0 6.2-2.1 7.1-5.7.2-.7.2-1.3.2-2.1v-4.6zM42.8 64c.1 1.6-1.1 2.9-3.1 2.9-1.7 0-2.9-1.3-2.9-2.9 0-1.7 1.3-3 3-3 1.9 0 3 1.3 3 3zm-5.4 33.8V71.4h4.8v26.4h-4.8zM47.5 78.6c0-2.7-.1-5-.2-7.1h4.3l.3 4.4h.1c1.3-2.5 4.4-5 8.8-5 3.7 0 9.4 2.2 9.4 11.2v15.8h-4.8V82.6c0-4.3-1.6-7.8-6.1-7.8-3.2 0-5.6 2.2-6.5 4.9-.2.6-.3 1.4-.3 2.2v15.9h-4.8V78.6zM84 61.6c2.9-.4 6.3-.8 10.1-.8 6.8 0 11.7 1.6 14.9 4.6 3.3 3 5.2 7.3 5.2 13.2 0 6-1.9 10.9-5.3 14.3-3.4 3.4-9.1 5.3-16.3 5.3-3.4 0-6.2-.2-8.6-.4V61.6zm4.8 32.5c1.2.2 3 .3 4.8.3 10.2 0 15.7-5.7 15.7-15.6.1-8.7-4.9-14.2-14.9-14.2-2.5 0-4.3.2-5.6.5v29zM132.1 97.8l-.4-3.3h-.2a9.79 9.79 0 01-8.1 3.9c-5.4 0-8.1-3.8-8.1-7.6 0-6.4 5.7-9.9 15.9-9.8v-.5c0-2.2-.6-6.1-6-6.1-2.5 0-5 .8-6.9 2l-1.1-3.2c2.2-1.4 5.4-2.3 8.7-2.3 8.1 0 10.1 5.5 10.1 10.8v9.9c0 2.3.1 4.5.4 6.3h-4.3zm-.7-13.4c-5.3-.1-11.2.8-11.2 5.9 0 3.1 2.1 4.6 4.5 4.6 3.4 0 5.6-2.2 6.4-4.4.2-.5.3-1 .3-1.5v-4.6zM146.6 63.9v7.6h6.9v3.7h-6.9v14.2c0 3.3.9 5.1 3.6 5.1 1.3 0 2.2-.2 2.8-.3l.2 3.6c-.9.4-2.4.7-4.3.7-2.2 0-4-.7-5.2-2-1.4-1.4-1.9-3.8-1.9-6.9V75.1h-4.1v-3.7h4.1v-6.3l4.8-1.2zM171.4 97.8l-.4-3.3h-.2a9.79 9.79 0 01-8.1 3.9c-5.4 0-8.1-3.8-8.1-7.6 0-6.4 5.7-9.9 15.9-9.8v-.5c0-2.2-.6-6.1-6-6.1-2.5 0-5 .8-6.9 2l-1.1-3.2c2.2-1.4 5.4-2.3 8.7-2.3 8.1 0 10.1 5.5 10.1 10.8v9.9c0 2.3.1 4.5.4 6.3h-4.3zm-.7-13.4c-5.3-.1-11.2.8-11.2 5.9 0 3.1 2.1 4.6 4.5 4.6 3.4 0 5.6-2.2 6.4-4.4.2-.5.3-1 .3-1.5v-4.6z"/></g></g></a></g><a href="https://ourworldindata.org/grapher/number-with-without-access-sanitation" target="_blank"><text font-size="21.6" x="15" y="32.3" fill="#555"><tspan x="15" y="32.28">Number of people with and without access to improved sanitation facilities,</tspan><tspan x="15" y="53.88">World</tspan></text></a><text font-size="14.4" x="15" y="72.7" fill="#666"><tspan x="15" y="72.72">The total number of people with and without access to an improved sanitation facility, which includes flush/pour flush (to piped</tspan><tspan x="15" y="88.56">sewer system, septic tank, pit latrine), ventilated improved pit (VIP) latrine, pit latrine with slab, and composting toilet.</tspan></text></g><g class="StackedArea"><defs><clipPath id="a"><path d="M75.08 0h820v861.6h-820z"/></clipPath></defs><g class="AxisBoxView"><g class="HorizontalAxis" fill="#666" text-anchor="middle" font-size="16.2"><text x="75.1" y="541.9">1990</text><text x="198.2" y="541.9">1995</text><text x="321.3" y="541.9">2000</text><text x="444.4" y="541.9">2005</text><text x="567.5" y="541.9">2010</text><text x="690.6" y="541.9">2015</text></g><g class="VerticalAxis" fill="#666" dominant-baseline="middle" text-anchor="end" font-size="16.2"><text x="70.08" y="520.7">0</text><text x="70.08" y="465">1 billion</text><text x="70.08" y="409.3">2 billion</text><text x="70.08" y="353.6">3 billion</text><text x="70.08" y="297.9">4 billion</text><text x="70.08" y="242.3">5 billion</text><text x="70.08" y="186.6">6 billion</text><text x="70.08" y="130.9">7 billion</text></g><g class="AxisGridLines"><path stroke="#ccc" d="M75.08 520.7h615.5"/><path stroke="#ddd" stroke-dasharray="3,2" d="M75.08 465h615.5M75.08 409.3h615.5M75.08 353.6h615.5M75.08 297.9h615.5M75.08 242.3h615.5M75.08 186.6h615.5M75.08 130.9h615.5"/></g><g class="AxisGridLines" stroke="#ddd" stroke-dasharray="3,2"><path d="M75.1 520.7V111.1M198.2 520.7V111.1M321.3 520.7V111.1M444.4 520.7V111.1M567.5 520.7V111.1M690.6 520.7V111.1"/></g></g><g clip-path="url(#a)"><g class="HeightedLegend clickable"><g class="legendMark"><path fill="#3360a9" d="M695.58 248.15h10v2.5h-10z"/><text font-size="14.4" x="710.6" y="238.2" fill="#333"><tspan x="710.58" y="238.22">Population with</tspan><tspan x="710.58" y="254.06">access to improved</tspan><tspan x="710.58" y="269.9">sanitation</tspan></text></g><g class="legendMark"><path fill="#ca2628" d="M695.58 452.95h10v2.5h-10z"/><text font-size="14.4" x="710.6" y="443" fill="#333"><tspan x="710.58" y="443.02">Population without</tspan><tspan x="710.58" y="458.86">access to improved</tspan><tspan x="710.58" y="474.7">sanitation</tspan></text></g></g><g class="Areas"><path d="M75.1 382.1l24.6-1.3 24.6-.6 24.6-.7 24.7.6 24.6-.3 24.6.4 24.6-.2 24.6.1h24.7l24.6.2 24.6.2 24.6.4 24.6.3 24.7.5 24.6.5 24.6.5 24.6.5 24.6.6 24.7.6 24.6.6 24.6.2 24.6.8 24.6.7 24.7.5 24.6.5-.02 133H75.08" fill="#ca2628" fill-opacity=".7" class="World_1-area"/><path d="M75.1 226.4l24.6-4.9 24.6-4.6 24.6-4.8 24.7-4.6 24.6-4.8 24.6-4.6 24.6-4.6L272 189l24.7-4.5 24.6-4.5 24.6-4.4 24.6-4.4 24.6-4.5 24.7-4.4 24.6-4.5 24.6-4.6 24.6-4.5 24.6-4.7 24.7-4.6 24.6-4.7 24.6-4.5 24.6-4.7 24.6-4.8 24.7-4.8 24.6-4.8v276.6l-24.6-.5-24.7-.5-24.6-.7-24.6-.8-24.6-.2-24.6-.6-24.7-.6-24.6-.6-24.6-.5-24.6-.5-24.6-.5-24.7-.5-24.6-.3-24.6-.4-24.6-.2-24.6-.2H272l-24.6-.1-24.6.2-24.6-.4-24.6.3-24.7-.6-24.6.7-24.6.6-24.6 1.3" fill="#3360a9" fill-opacity=".7" class="World_0-area"/><path stroke-linecap="round" d="M75.1 382.1l24.6-1.3 24.6-.6 24.6-.7 24.7.6 24.6-.3 24.6.4 24.6-.2 24.6.1h24.7l24.6.2 24.6.2 24.6.4 24.6.3 24.7.5 24.6.5 24.6.5 24.6.5 24.6.6 24.7.6 24.6.6 24.6.2 24.6.8 24.6.7 24.7.5 24.6.5" stroke="#A92021" stroke-opacity=".7" stroke-width=".5" fill="none" class="World_1-border"/><path stroke-linecap="round" d="M75.1 226.4l24.6-4.9 24.6-4.6 24.6-4.8 24.7-4.6 24.6-4.8 24.6-4.6 24.6-4.6L272 189l24.7-4.5 24.6-4.5 24.6-4.4 24.6-4.4 24.6-4.5 24.7-4.4 24.6-4.5 24.6-4.6 24.6-4.5 24.6-4.7 24.7-4.6 24.6-4.7 24.6-4.5 24.6-4.7 24.6-4.8 24.7-4.8 24.6-4.8" stroke="#2B508D" stroke-opacity=".7" stroke-width=".5" fill="none" class="World_0-border"/></g></g></g><g class="SourcesFooter" fill="#777"><g class="clickable" fill="#777"><text font-size="12.6" x="15" y="567"><tspan x="15" y="566.98">Source: OurWorldinData based on World Bank, World Development Indicators</tspan></text></g><text font-size="12.6" x="15" y="582.5"><tspan x="15" y="582.48"><a target="_blank" href="https://ourworldindata.org/water-access-resources-sanitation/" fill="#777">OurWorldInData.org/water-access-resources-sanitation/</a> • <a href="http://creativecommons.org/licenses/by-sa/4.0/deed.en_US" target="_blank" fill="#777">CC BY-SA</a></tspan></text></g></g></svg>

<svg xmlns="http://www.w3.org/2000/svg" version="1.1" style="font-family: 'Helvetica Neue', Helvetica, Arial, sans-serif; font-size: 18px; background-color: white; text-rendering: optimizeLegibility; -webkit-font-smoothing: antialiased;" width="850" height="600"><g class="ChartTab"><g class="HeaderView"><g opacity="0.8" transform="translate(770, 15) scale(0.31)"><a xmlns:xlink="http://www.w3.org/1999/xlink" xlink:href="https://ourworldindata.org" target="_blank"><g><rect x="0" y="0" fill="#1B2543" width="211.2" height="130.1"/><rect x="0" y="112.2" fill="#E63912" width="211.2" height="17.9"/><g><rect x="1.2" y="12.3" fill="none" width="210.2" height="99.2"/><path fill="#FFFFFF" d="M37.8,32.2c0,12.7-7.7,19.4-17.1,19.4c-9.7,0-16.6-7.5-16.6-18.7c0-11.7,7.3-19.3,17.1-19.3 C31.3,13.7,37.8,21.3,37.8,32.2z M9.2,32.8c0,7.9,4.3,14.9,11.8,14.9c7.5,0,11.8-6.9,11.8-15.3c0-7.3-3.8-14.9-11.8-14.9 C13.1,17.5,9.2,24.8,9.2,32.8z"/><path fill="#FFFFFF" d="M62.7,43.8c0,2.7,0.1,5.1,0.2,7.2h-4.3l-0.3-4.3h-0.1c-1.3,2.1-4,4.9-8.8,4.9c-4.2,0-9.1-2.3-9.1-11.6 V24.6h4.8v14.6c0,5,1.5,8.4,5.9,8.4c3.2,0,5.5-2.2,6.3-4.4c0.3-0.7,0.4-1.6,0.4-2.5V24.6h4.8V43.8z"/><path fill="#FFFFFF" d="M67.3,32.8c0-3.1-0.1-5.8-0.2-8.2h4.2l0.2,5.2h0.2c1.2-3.5,4.1-5.8,7.3-5.8c0.5,0,0.9,0.1,1.4,0.2v4.5 c-0.5-0.1-1-0.2-1.6-0.2c-3.4,0-5.8,2.6-6.5,6.2c-0.1,0.7-0.2,1.4-0.2,2.2V51h-4.8V32.8z"/><path fill="#FFFFFF" d="M95.4,51l-9.4-36.8h5l4.4,18.6c1.1,4.6,2.1,9.2,2.7,12.7h0.1c0.6-3.7,1.8-8,3-12.8l4.9-18.5h5l4.5,18.7 c1,4.4,2,8.7,2.6,12.6h0.1c0.8-4,1.8-8.1,3-12.7l4.9-18.5h4.9L120.6,51h-5L111,31.9c-1.1-4.7-1.9-8.3-2.4-12h-0.1 c-0.7,3.7-1.5,7.3-2.8,12L100.4,51H95.4z"/><path fill="#FFFFFF" d="M154.9,37.6c0,9.8-6.8,14-13.2,14c-7.2,0-12.7-5.2-12.7-13.6c0-8.8,5.8-14,13.1-14 C149.8,24,154.9,29.5,154.9,37.6z M133.9,37.9c0,5.8,3.3,10.1,8,10.1c4.6,0,8-4.3,8-10.3c0-4.5-2.2-10.1-7.9-10.1 C136.3,27.6,133.9,32.8,133.9,37.9z"/><path fill="#FFFFFF" d="M158.2,32.8c0-3.1-0.1-5.8-0.2-8.2h4.2l0.2,5.2h0.2c1.2-3.5,4.1-5.8,7.3-5.8c0.5,0,0.9,0.1,1.4,0.2v4.5 c-0.5-0.1-1-0.2-1.6-0.2c-3.4,0-5.8,2.6-6.5,6.2c-0.1,0.7-0.2,1.4-0.2,2.2V51h-4.8V32.8z"/><path fill="#FFFFFF" d="M173.5,12.3h4.8V51h-4.8V12.3z"/><path fill="#FFFFFF" d="M206.5,12.3v31.9c0,2.3,0.1,5,0.2,6.8h-4.3l-0.2-4.6H202c-1.5,2.9-4.7,5.2-9,5.2 c-6.4,0-11.3-5.4-11.3-13.4c-0.1-8.8,5.4-14.2,11.9-14.2c4,0,6.8,1.9,8,4h0.1V12.3H206.5z M201.7,35.4c0-0.6-0.1-1.4-0.2-2 c-0.7-3.1-3.3-5.6-6.9-5.6c-5,0-7.9,4.4-7.9,10.2c0,5.3,2.6,9.8,7.8,9.8c3.2,0,6.2-2.1,7.1-5.7c0.2-0.7,0.2-1.3,0.2-2.1V35.4z"/><path fill="#FFFFFF" d="M42.8,64c0.1,1.6-1.1,2.9-3.1,2.9c-1.7,0-2.9-1.3-2.9-2.9c0-1.7,1.3-3,3-3C41.7,61,42.8,62.3,42.8,64z M37.4,97.8V71.4h4.8v26.4H37.4z"/><path fill="#FFFFFF" d="M47.5,78.6c0-2.7-0.1-5-0.2-7.1h4.3l0.3,4.4h0.1c1.3-2.5,4.4-5,8.8-5c3.7,0,9.4,2.2,9.4,11.2v15.8h-4.8 V82.6c0-4.3-1.6-7.8-6.1-7.8c-3.2,0-5.6,2.2-6.5,4.9c-0.2,0.6-0.3,1.4-0.3,2.2v15.9h-4.8V78.6z"/><path fill="#FFFFFF" d="M84,61.6c2.9-0.4,6.3-0.8,10.1-0.8c6.8,0,11.7,1.6,14.9,4.6c3.3,3,5.2,7.3,5.2,13.2c0,6-1.9,10.9-5.3,14.3 c-3.4,3.4-9.1,5.3-16.3,5.3c-3.4,0-6.2-0.2-8.6-0.4V61.6z M88.8,94.1c1.2,0.2,3,0.3,4.8,0.3c10.2,0,15.7-5.7,15.7-15.6 c0.1-8.7-4.9-14.2-14.9-14.2c-2.5,0-4.3,0.2-5.6,0.5V94.1z"/><path fill="#FFFFFF" d="M132.1,97.8l-0.4-3.3h-0.2c-1.5,2.1-4.3,3.9-8.1,3.9c-5.4,0-8.1-3.8-8.1-7.6c0-6.4,5.7-9.9,15.9-9.8v-0.5 c0-2.2-0.6-6.1-6-6.1c-2.5,0-5,0.8-6.9,2l-1.1-3.2c2.2-1.4,5.4-2.3,8.7-2.3c8.1,0,10.1,5.5,10.1,10.8v9.9c0,2.3,0.1,4.5,0.4,6.3 H132.1z M131.4,84.4c-5.3-0.1-11.2,0.8-11.2,5.9c0,3.1,2.1,4.6,4.5,4.6c3.4,0,5.6-2.2,6.4-4.4c0.2-0.5,0.3-1,0.3-1.5V84.4z"/><path fill="#FFFFFF" d="M146.6,63.9v7.6h6.9v3.7h-6.9v14.2c0,3.3,0.9,5.1,3.6,5.1c1.3,0,2.2-0.2,2.8-0.3l0.2,3.6 c-0.9,0.4-2.4,0.7-4.3,0.7c-2.2,0-4-0.7-5.2-2c-1.4-1.4-1.9-3.8-1.9-6.9V75.1h-4.1v-3.7h4.1v-6.3L146.6,63.9z"/><path fill="#FFFFFF" d="M171.4,97.8l-0.4-3.3h-0.2c-1.5,2.1-4.3,3.9-8.1,3.9c-5.4,0-8.1-3.8-8.1-7.6c0-6.4,5.7-9.9,15.9-9.8v-0.5 c0-2.2-0.6-6.1-6-6.1c-2.5,0-5,0.8-6.9,2l-1.1-3.2c2.2-1.4,5.4-2.3,8.7-2.3c8.1,0,10.1,5.5,10.1,10.8v9.9c0,2.3,0.1,4.5,0.4,6.3 H171.4z M170.7,84.4c-5.3-0.1-11.2,0.8-11.2,5.9c0,3.1,2.1,4.6,4.5,4.6c3.4,0,5.6-2.2,6.4-4.4c0.2-0.5,0.3-1,0.3-1.5V84.4z"/></g></g></a></g><a href="https://ourworldindata.org/grapher/number-with-without-access-sanitation" target="_blank"><text font-size="21.60" x="15.0" y="32.3" fill="#555"><tspan x="15" y="32.279999999999994">Number of people with and without access to improved sanitation facilities,</tspan><tspan x="15" y="53.87999999999999">World</tspan></text></a><text font-size="14.40" x="15.0" y="72.7" fill="#666"><tspan x="15" y="72.72">The total number of people with and without access to an improved sanitation facility, which includes flush/pour flush (to piped</tspan><tspan x="15" y="88.56">sewer system, septic tank, pit latrine), ventilated improved pit (VIP) latrine, pit latrine with slab, and composting toilet.</tspan></text></g><g class="StackedArea"><defs><clipPath id="boundsClip-758"><rect x="75.08" y="0" width="820" height="861.5999999999999"></rect></clipPath></defs><g class="AxisBoxView"><g class="HorizontalAxis"><text x="75.1" y="541.9" fill="#666" text-anchor="middle" font-size="16.2">1990</text><text x="198.2" y="541.9" fill="#666" text-anchor="middle" font-size="16.2">1995</text><text x="321.3" y="541.9" fill="#666" text-anchor="middle" font-size="16.2">2000</text><text x="444.4" y="541.9" fill="#666" text-anchor="middle" font-size="16.2">2005</text><text x="567.5" y="541.9" fill="#666" text-anchor="middle" font-size="16.2">2010</text><text x="690.6" y="541.9" fill="#666" text-anchor="middle" font-size="16.2">2015</text></g><g class="VerticalAxis"><text x="70.08" y="520.7" fill="#666" dominant-baseline="middle" text-anchor="end" font-size="16.2">0</text><text x="70.08" y="465" fill="#666" dominant-baseline="middle" text-anchor="end" font-size="16.2">1 billion</text><text x="70.08" y="409.3" fill="#666" dominant-baseline="middle" text-anchor="end" font-size="16.2">2 billion</text><text x="70.08" y="353.6" fill="#666" dominant-baseline="middle" text-anchor="end" font-size="16.2">3 billion</text><text x="70.08" y="297.9" fill="#666" dominant-baseline="middle" text-anchor="end" font-size="16.2">4 billion</text><text x="70.08" y="242.3" fill="#666" dominant-baseline="middle" text-anchor="end" font-size="16.2">5 billion</text><text x="70.08" y="186.6" fill="#666" dominant-baseline="middle" text-anchor="end" font-size="16.2">6 billion</text><text x="70.08" y="130.9" fill="#666" dominant-baseline="middle" text-anchor="end" font-size="16.2">7 billion</text></g><g class="AxisGridLines"><line x1="75.08" y1="520.7" x2="690.58" y2="520.7" stroke="#ccc"></line><line x1="75.08" y1="465" x2="690.58" y2="465" stroke="#ddd" stroke-dasharray="3,2"></line><line x1="75.08" y1="409.3" x2="690.58" y2="409.3" stroke="#ddd" stroke-dasharray="3,2"></line><line x1="75.08" y1="353.6" x2="690.58" y2="353.6" stroke="#ddd" stroke-dasharray="3,2"></line><line x1="75.08" y1="297.9" x2="690.58" y2="297.9" stroke="#ddd" stroke-dasharray="3,2"></line><line x1="75.08" y1="242.3" x2="690.58" y2="242.3" stroke="#ddd" stroke-dasharray="3,2"></line><line x1="75.08" y1="186.6" x2="690.58" y2="186.6" stroke="#ddd" stroke-dasharray="3,2"></line><line x1="75.08" y1="130.9" x2="690.58" y2="130.9" stroke="#ddd" stroke-dasharray="3,2"></line></g><g class="AxisGridLines"><line x1="75.1" y1="520.70" x2="75.1" y2="111.10" stroke="#ddd" stroke-dasharray="3,2"></line><line x1="198.2" y1="520.70" x2="198.2" y2="111.10" stroke="#ddd" stroke-dasharray="3,2"></line><line x1="321.3" y1="520.70" x2="321.3" y2="111.10" stroke="#ddd" stroke-dasharray="3,2"></line><line x1="444.4" y1="520.70" x2="444.4" y2="111.10" stroke="#ddd" stroke-dasharray="3,2"></line><line x1="567.5" y1="520.70" x2="567.5" y2="111.10" stroke="#ddd" stroke-dasharray="3,2"></line><line x1="690.6" y1="520.70" x2="690.6" y2="111.10" stroke="#ddd" stroke-dasharray="3,2"></line></g></g><g clip-path="url(#boundsClip-758)"><g class="HeightedLegend clickable"><g class="legendMark"><rect x="695.5840000000001" y="226.7" width="139.416" height="45.400000000000006" fill="#fff" opacity="0"></rect><rect x="695.5840000000001" y="248.14999999999998" width="10" height="2.5" fill="#3360a9"></rect><text font-size="14.40" x="710.6" y="238.2" fill="#333"><tspan x="710.5840000000001" y="238.22">Population with</tspan><tspan x="710.5840000000001" y="254.06">access to improved</tspan><tspan x="710.5840000000001" y="269.9">sanitation</tspan></text></g><g class="legendMark"><rect x="695.5840000000001" y="431.5" width="139.416" height="45.400000000000006" fill="#fff" opacity="0"></rect><rect x="695.5840000000001" y="452.95" width="10" height="2.5" fill="#ca2628"></rect><text font-size="14.40" x="710.6" y="443.0" fill="#333"><tspan x="710.5840000000001" y="443.02">Population without</tspan><tspan x="710.5840000000001" y="458.85999999999996">access to improved</tspan><tspan x="710.5840000000001" y="474.7">sanitation</tspan></text></g></g><g class="Areas"><rect x="75.08" y="111.1" width="615.504" height="409.5999999999999" opacity="0" fill="rgba(255,255,255,0)"></rect><path stroke-linecap="round" d="M75.1 382.1L99.7 380.8L124.3 380.2L148.9 379.5L173.6 380.1L198.2 379.8L222.8 380.2L247.4 380L272 380.1L296.7 380.1L321.3 380.3L345.9 380.5L370.5 380.9L395.1 381.2L419.8 381.7L444.4 382.2L469 382.7L493.6 383.2L518.2 383.8L542.9 384.4L567.5 385L592.1 385.2L616.7 386L641.3 386.7L666 387.2L690.6 387.7L690.5840000000001 520.6999999999999L75.08 520.6999999999999" fill="#ca2628" fill-opacity="0.7" class="World_1-area"></path><path stroke-linecap="round" d="M75.1 226.4L99.7 221.5L124.3 216.9L148.9 212.1L173.6 207.5L198.2 202.7L222.8 198.1L247.4 193.5L272 189L296.7 184.5L321.3 180L345.9 175.6L370.5 171.2L395.1 166.7L419.8 162.3L444.4 157.8L469 153.2L493.6 148.7L518.2 144L542.9 139.4L567.5 134.7L592.1 130.2L616.7 125.5L641.3 120.7L666 115.9L690.6 111.1L690.6 387.7L666 387.2L641.3 386.7L616.7 386L592.1 385.2L567.5 385L542.9 384.4L518.2 383.8L493.6 383.2L469 382.7L444.4 382.2L419.8 381.7L395.1 381.2L370.5 380.9L345.9 380.5L321.3 380.3L296.7 380.1L272 380.1L247.4 380L222.8 380.2L198.2 379.8L173.6 380.1L148.9 379.5L124.3 380.2L99.7 380.8L75.1 382.1" fill="#3360a9" fill-opacity="0.7" class="World_0-area"></path><path stroke-linecap="round" d="M75.1 382.1L99.7 380.8L124.3 380.2L148.9 379.5L173.6 380.1L198.2 379.8L222.8 380.2L247.4 380L272 380.1L296.7 380.1L321.3 380.3L345.9 380.5L370.5 380.9L395.1 381.2L419.8 381.7L444.4 382.2L469 382.7L493.6 383.2L518.2 383.8L542.9 384.4L567.5 385L592.1 385.2L616.7 386L641.3 386.7L666 387.2L690.6 387.7" stroke="rgb(169, 32, 33)" stroke-opacity="0.7" stroke-width="0.5" fill="none" class="World_1-border"></path><path stroke-linecap="round" d="M75.1 226.4L99.7 221.5L124.3 216.9L148.9 212.1L173.6 207.5L198.2 202.7L222.8 198.1L247.4 193.5L272 189L296.7 184.5L321.3 180L345.9 175.6L370.5 171.2L395.1 166.7L419.8 162.3L444.4 157.8L469 153.2L493.6 148.7L518.2 144L542.9 139.4L567.5 134.7L592.1 130.2L616.7 125.5L641.3 120.7L666 115.9L690.6 111.1" stroke="rgb(43, 80, 141)" stroke-opacity="0.7" stroke-width="0.5" fill="none" class="World_0-border"></path></g></g></g><g style="fill: #777;" class="SourcesFooter"><g style="fill: #777;" class="clickable"><text font-size="12.60" x="15.0" y="567.0"><tspan x="15" y="566.98">Source: OurWorldinData based on World Bank, World Development Indicators</tspan></text></g><text font-size="12.60" x="15.0" y="582.5"><tspan x="15" y="582.48"><a target='_blank' style='fill: #777;' href='https://ourworldindata.org/water-access-resources-sanitation/'>OurWorldInData.org/water-access-resources-sanitation/</a> • <a style="fill: #777;" href="http://creativecommons.org/licenses/by-sa/4.0/deed.en_US" target="_blank">CC BY-SA</a></tspan></text></g></g></svg>
